X: 78
T: Judica me deus
N: Derived from Mar2057-Judica_me_deus.krn
C: Johannes Martini
%%abc-version 2.0
%%abcx-abcm2ps-target-version 5.9.1 (29 Sep 2008)
%%abc-creator hum2abc beta
%%abcx-conversion-date 2019/02/17 07:19:42
%%abc-edited-by Jesse Rodin
%%abc-edited-by Chris Gage 03-26-2014
%%abcx-initial-encoding-date 2014/06/20/
%%humdrum-veritas 2338188164
%%humdrum-veritas-data 448894600
%%linebreak <none>
%%barnumbers 0
L: 1/4
M: 4/2
Q: 1/2=120
V: 1 clef=treble
V: 2 clef=treble-8
V: 3 clef=treble-8
K: C
[V:1] A4A2A2 | 
[V:2] e4e2e2 | 
[V:3] A4c2c2 | 
[V:1] A4A2A2 | 
[V:2] e4e2e2 | 
[V:3] c4c2c2 | 
[V:1] A4G4 | 
[V:2] e4d4 | 
[V:3] c4B4 | 
[V:1] A2B2G2A2- | 
[V:2] e2f2d2e2- | 
[V:3] c2d2B2c2 | 
[V:1] A2GFE2F2- | 
[V:2] e2dcB2c2- | 
[V:3] A4G2A2- | 
[V:1] F2E4D2 | 
[V:2] c2B4A2 | 
[V:3] AGE2F4 | 
[V:1] E8 ||  
[V:2] B8 ||  
[V:3] E8 ||  
[V:1] A4G4 | 
[V:2] z8 | 
[V:3] A4B4 | 
[V:1] A4A2A2 | 
[V:2] z8 | 
[V:3] c4c2c2 | 
[V:1] A4A4 | 
[V:2] z8 | 
[V:3] c4c4 | 
[V:1] G4F4 | 
[V:2] z8 | 
[V:3] B4A4 | 
[V:1] E3FG2A2- | 
[V:2] z8 | 
[V:3] G3AB2c2 | 
[V:1] A2^G2A4 | 
[V:2] z8 | 
[V:3] B4A4 | 
[V:1] z4A2A2 | 
[V:2] z8 | 
[V:3] z4c2c2 | 
[V:1] A4A2A2 | 
[V:2] z8 | 
[V:3] c4c2c2 | 
[V:1] A4A4 | 
[V:2] z8 | 
[V:3] c4c4 | 
[V:1] z2A2A2A2 | 
[V:2] z8 | 
[V:3] c4c2c2 | 
[V:1] A4A4 | 
[V:2] z8 | 
[V:3] c4c4 | 
[V:1] A2A2A4 | 
[V:2] z8 | 
[V:3] c2c2c4 | 
[V:1] G4A2B2 | 
[V:2] z8 | 
[V:3] B4c2d2 | 
[V:1] G2A4GF | 
[V:2] z8 | 
[V:3] B2c4BA | 
[V:1] E2F4E2- | 
[V:2] z8 | 
[V:3] G2A4G2 | 
[V:1] E2D2E4 ||  
[V:2] z8 ||  
[V:3] F4E4 ||  
[V:1] A2A2A4 | 
[V:2] e2e2e4 | 
[V:3] c2c2c4 | 
[V:1] A2A2A4 | 
[V:2] e2e2e4 | 
[V:3] c2c2c4 | 
[V:1] A4A4 | 
[V:2] e4e4 | 
[V:3] A4c4 | 
[V:1] A2A2G4 | 
[V:2] e2e2d4 | 
[V:3] c2c2B4 | 
[V:1] A2B4A2- | 
[V:2] e2f4e2- | 
[V:3] c2d4A2 | 
[V:1] A2^G2A4 | 
[V:2] e2d2e4 | 
[V:3] B4A4 | 
[V:1] z4A2A2 | 
[V:2] z4e2e2 | 
[V:3] z4c2c2 | 
[V:1] A2A2A2A2 | 
[V:2] e2e2e2e2 | 
[V:3] c2c2c2c2 | 
[V:1] A4z2A2 | 
[V:2] e4z2e2 | 
[V:3] A4z2c2 | 
[V:1] A4A2A2 | 
[V:2] e4e2e2 | 
[V:3] c4c2c2 | 
[V:1] A2A2A4 | 
[V:2] e2e2e4 | 
[V:3] c2c2c4 | 
[V:1] A4G4 | 
[V:2] e4d4 | 
[V:3] A4z2B2 | 
[V:1] A2B2G2A2 | 
[V:2] e2f2d2e2 | 
[V:3] c2d2B2c2 | 
[V:1] F4E2F2- | 
[V:2] c4B2c2- | 
[V:3] A4G2A2- | 
[V:1] F2E4D2 | 
[V:2] c2B4A2 | 
[V:3] AGE2F4 | 
[V:1] E8 ||  
[V:2] B8 ||  
[V:3] E8 ||  
[V:1] A4G4 | 
[V:2] z8 | 
[V:3] A4B4 | 
[V:1] A4A2A2 | 
[V:2] z8 | 
[V:3] c4c2c2 | 
[V:1] A4A4 | 
[V:2] z8 | 
[V:3] c4c4 | 
[V:1] G4F4 | 
[V:2] z8 | 
[V:3] B4A4 | 
[V:1] E3FG2A2- | 
[V:2] z8 | 
[V:3] G3AB2c2 | 
[V:1] A2^G2A4 | 
[V:2] z8 | 
[V:3] B4A4 | 
[V:1] z4A2A2 | 
[V:2] z8 | 
[V:3] z4c2c2 | 
[V:1] A4A2A2 | 
[V:2] z8 | 
[V:3] c4c2c2 | 
[V:1] A2A2A4 | 
[V:2] z8 | 
[V:3] c2c2c4 | 
[V:1] G4F4 | 
[V:2] z8 | 
[V:3] B4A4 | 
[V:1] G2A4GF | 
[V:2] z8 | 
[V:3] B2c4BA | 
[V:1] E2F4E2- | 
[V:2] z8 | 
[V:3] G2A4G2 | 
[V:1] E2D2E4 ||  
[V:2] z8 ||  
[V:3] F4E4 ||  
[V:1] A4A2A2 | 
[V:2] e4e2e2 | 
[V:3] c4c2c2 | 
[V:1] A2A2A4 | 
[V:2] e2e2e4 | 
[V:3] c2c2A4 | 
[V:1] A4A2A2 | 
[V:2] e4e2e2 | 
[V:3] c4c2c2 | 
[V:1] A4G4 | 
[V:2] e4d4 | 
[V:3] c4B4 | 
[V:1] A2B4A2- | 
[V:2] e2f4e2- | 
[V:3] c2d4c2 | 
[V:1] A2^G2A4 | 
[V:2] e2d2e4 | 
[V:3] B4A4 | 
[V:1] z4A2A2 | 
[V:2] z4e2e2 | 
[V:3] z4c2c2 | 
[V:1] A2A2A4 | 
[V:2] e2e2e4 | 
[V:3] c2c2c4 | 
[V:1] A4G2F2 | 
[V:2] e4d2c2 | 
[V:3] c4B2A2 | 
[V:1] G4F4 | 
[V:2] d4c4 | 
[V:3] B4A4 | 
[V:1] G4A2B2 | 
[V:2] d4e2f2 | 
[V:3] B4c2d2 | 
[V:1] G2A2F4 | 
[V:2] d2e2c4 | 
[V:3] B2c2A4 | 
[V:1] E2F4E2- | 
[V:2] B2c4B2- | 
[V:3] G2A3GE2 | 
[V:1] E2D2E4 ||  
[V:2] B2A2B4 ||  
[V:3] F4E4 ||  
[V:1] A4G4 | 
[V:2] z8 | 
[V:3] A4B4 | 
[V:1] A4A2A2 | 
[V:2] z8 | 
[V:3] c4c2c2 | 
[V:1] A4A2A2 | 
[V:2] z8 | 
[V:3] c4c2c2 | 
[V:1] A2A2A4 | 
[V:2] z8 | 
[V:3] c2c2c4 | 
[V:1] G4F4 | 
[V:2] z8 | 
[V:3] B4A4 | 
[V:1] E3FG2A2- | 
[V:2] z8 | 
[V:3] G3AB2c2 | 
[V:1] A2^G2A4 | 
[V:2] z8 | 
[V:3] B4A4 | 
[V:1] z4A4 | 
[V:2] z8 | 
[V:3] z4c4 | 
[V:1] A2A2A4 | 
[V:2] z8 | 
[V:3] c2c2c4 | 
[V:1] A2A2A4 | 
[V:2] z8 | 
[V:3] c2c2c4 | 
[V:1] A4G3F | 
[V:2] z8 | 
[V:3] c4B3A | 
[V:1] G2A4G2- | 
[V:2] z8 | 
[V:3] B2c4B2 | 
[V:1] G2^F2G4 |]  
[V:2] z8 |]  
[V:3] A4G4 |]  



